X: 14
T:Devil's Dream
M:4/4
L:1/8
S:Appalachian
R:Reel
K:A
fg|"A"agae agae|"A"agae fedc|"Bm"dfBf dfBf|"E"dfag fece|!
"A"agae agae|"A"agae fedc|"Bm"dfed "A"dBAF|"E"EAGB "A"A2:|!
|:ed|"A"ceAe ceAe|"A"ceAe fedc|"Bm"dfBf dfBf|"Bm"dfBf "E"gfed|!
"A"ceAe ceAe|"A"ceAe fedc|"Bm"dfed "A"dBAF|"E"EAGB "A"A2:||
